flags/sm.svg

<svg width="512" height="512" viewBox="0 0 512 512" fill="none" xmlns="http://www.w3.org/2000/svg">
<rect y="204.863" width="512" height="307.137" fill="var(--flag-palette-light-blue, #338af3)"/>
<rect width="512" height="256" fill="var(--flag-palette-white, #eeeeee)"/>
<path d="M357.616 176.645L256 278.262L154.384 176.645C141.243 196.152 133.566 219.631 133.566 244.87V278.261C133.566 331.877 168.211 377.55 216.288 394.081C209.871 406.657 210.953 422.352 220.356 434.087C232.844 424.078 245.773 413.717 256.741 404.929C267.709 413.718 280.639 424.079 293.126 434.087C302.639 422.215 303.643 406.285 296.973 393.635C344.393 376.745 378.434 331.407 378.434 278.261V244.871C378.435 219.631 370.757 196.153 357.616 176.645Z" fill="var(--flag-palette-green, #6da544)"/>
<path d="M256 367.305C206.901 367.305 166.957 327.36 166.957 278.262V244.871C166.957 195.772 206.902 155.828 256 155.828C305.098 155.828 345.043 195.773 345.043 244.871V278.262C345.043 327.36 305.099 367.305 256 367.305Z" fill="var(--flag-palette-dark-yellow, #ffc635)"/>
<path d="M311.652 278.262V244.871C311.652 214.184 286.686 189.219 256 189.219C225.314 189.219 200.348 214.185 200.348 244.871V278.262L256 289.392L311.652 278.262Z" fill="var(--flag-palette-light-blue, #338af3)"/>
<path d="M200.348 278.262C200.348 308.949 225.314 333.914 256 333.914C286.686 333.914 311.652 308.948 311.652 278.262H200.348Z" fill="var(--flag-palette-green, #6da544)"/>
<path d="M322.784 155.827C322.784 137.386 307.834 122.436 289.393 122.436C280.838 122.436 273.041 125.656 267.132 130.945V111.305H278.262V89.0441H267.132V77.9141H244.871V89.0441H233.741V111.305H244.871V130.945C238.962 125.656 231.164 122.436 222.61 122.436C204.169 122.436 189.219 137.386 189.219 155.827C189.219 165.714 193.52 174.594 200.349 180.709V200.349H311.653V180.709C318.483 174.594 322.784 165.714 322.784 155.827Z" fill="var(--flag-palette-dark-yellow, #ffc635)"/>
</svg>

<svg xmlns="http://www.w3.org/2000/svg" width="512" height="512" fill="none"><path fill="var(--flag-palette-light-blue, #338af3)" d="M0 204.9h512V512H0z"/><path fill="var(--flag-palette-white, #eeeeee)" d="M0 0h512v256H0z"/><path fill="var(--flag-palette-green, #6da544)" d="M357.6 176.6 256 278.3 154.4 176.6a122 122 0 0 0-20.8 68.3v33.4c0 53.6 34.6 99.3 82.7 115.8a37 37 0 0 0 4 40l36.4-29.2 36.4 29.2a37 37 0 0 0 3.9-40.5 123 123 0 0 0 81.4-115.3v-33.4c0-25.3-7.6-48.7-20.8-68.3"/><path fill="var(--flag-palette-dark-yellow, #ffc635)" d="M256 367.3c-49.1 0-89-40-89-89v-33.4a89.1 89.1 0 0 1 178 0v33.4c0 49-39.9 89-89 89"/><path fill="var(--flag-palette-light-blue, #338af3)" d="M311.7 278.3v-33.4a55.7 55.7 0 0 0-111.4 0v33.4l55.7 11z"/><path fill="var(--flag-palette-green, #6da544)" d="M200.3 278.3a55.7 55.7 0 0 0 111.4 0z"/><path fill="var(--flag-palette-dark-yellow, #ffc635)" d="M322.8 155.8A33.4 33.4 0 0 0 267 131v-19.6h11.2V89H267V78h-22v11h-11.2v22.3H245V131a33.4 33.4 0 1 0-44.5 49.8v19.6h111.3v-19.6c6.8-6.1 11-15 11-24.9"/></svg>
